X:553
T: Gongchandanglai haozhuzhang
N: C1972
O: China,Guangdong Huidong
S: II, 381]
R: Xiaodiao]
M: 2/4
L: 1/16
K: A
B2B2B2e2 | c4B4 |
B2BBB2e2 | c4c4 | B2BBB2e2 | c4c4 |
B2B2B2e2 | c4B4 |
B2BAF2A2 | B2B4c2 | B2BAF2A2 | E8 |
B,2E2B,2E2 | F2E2F2E2 |
A2FAF2F2 | A2FAB2B2 | e2e4c2 | f2f2e4 | c2cBA2F2 | B4z4 |
B2BAF2A2 | E8

@@@ Tune index: 7108
